X: 3805
T: Mr Robert H. Mackay
P: Mr. Robert Mackay of Edinburgh
C:Muriel A. Johnstone
R:Strathspey (8x32)
B:RSCDS 38-5
Z:Anselm Lingnau <anselm@strathspey.org>
M:C
L:1/8
K:F
A>B|"F"c2 A<c "Bb"D>F B<D|"F"C>F A<F "C7"C>E G<E|\
    "Dm"{E}F2 "C"E>F "Bb"D/E/F "F"C>F|"Gm"D<G G>A "C7"Bc/B/ AB|
    "F"c2 A<c "Bb"D>F B<D|"F"C>F A<F "C7"C>E GB,|\
    "F"A,<F "Bb"B,<F "F"C<F "Bb"D<F|"C7"E/F/G G<E "F"F2||
A>G|"F"F>A c>f "C"(3efg "F"f>c|"Bb"d<c "F"c>A "C7"G>F G<A|\
    "F"A,<C F>C "Bb"D>C "F"F>C|"Gm"D<G G>A "C7"Bc/B/ AG|
    "F"F>A c>f "C"e/f/g/a/ "F"f>c|"Bb"d<c "F"c>A "C7"G>F G<A|\
    "F"A,<F "Gm"B,<F "F"C<F "Bb"D<F|"C7"E/F/G G<E "F"F2|]
%%center Book38/3805-Mr_Robert_H_Mackay-AL.abc

%%sep 1 1 500
%%sep 1 1 500

